X:1
T:Title
%%score { ( 1 4 5 ) | ( 2 3 ) }
L:1/8
M:4/4
K:F
V:1 treble nm="Grand Piano"
V:4 treble 
V:5 treble 
V:2 bass 
V:3 bass 
V:1
 z4 z2[Q:1/4=100] A2 | [CA]2 [DA]A [FA]2 [GA]A | [EB]2 [FB]2 [GB]3 B | [CB]2 [EB]B [GB]2 [_Ad]2 | %4
[M:3/4] [Ac]6 |[M:1/4] A2 |[M:4/4] [CA]2 [DA]A [FA]2 [GA]A | B2 [FB]2 [GB]3 B | %8
 [G=B]2 [DB]B [FB]2 B2 |[M:5/8] [GB]- [GB]3 z |[M:9/16] d3/2c3/2[CGB]3/2 | %11
[M:4/4] [CFA]2 [CFA]2 [CEG]2 [CF]2 | [CEB]6 [EG]2 | [EG][_E^F][=EG][FA] [GB]2 [_Ad]2 | [Ac]6 z2 | %15
 [CFA]2 [B,EG]2 [A,F]2 [A,_EF]2 |[M:9/8] [B,DG]2 [DA]- [DA] [DB]2- [DB] [Fd]2 | %17
[M:4/4] [Fc]2 [Fd]2 z2 G2 |[M:3/4] F6 |] %19
V:2
 z4 z2 C2 | F,,2 z E F,2 z F | C,2 G,2 C2 z E | C,2 z[K:treble] F C2[K:bass] C,2 | %4
[M:3/4] F,2 C,A,, F,,2 |[M:1/4] C2 |[M:4/4] F,,2 z E F,2 z F | E2 G,2 C2 z[K:treble] G | %8
 G,2[K:bass] z E z2 A2 |[M:5/8] [C,G,]- [C,G,]3 z |[M:9/16][K:treble] B3/2A3/2[K:bass]C,3/2 | %11
[M:4/4] F,2 F,2 B,2 A,2 | G,2 E,D, C,2 [C,C]2 | [C,C][C,C][C,C][C,C] [C,C]2 [C,C]2 | %14
 z2[K:treble] FD C2[K:bass] F,2 | F,2 C,2 D,2 C,2 | %16
[M:9/8] B,,2 [A,,^F,]- [A,,F,] [G,,G,]2- [G,,G,] [=B,,_A,]2 |[M:4/4] [C,A,]2 [C,B,]2 .[C,C]2 E2 | %18
[M:3/4] [F,A,]6 |] %19
V:3
 x8 | z2 C,2 z2 C,2 | z4 z2 G,2 | z2 G,2[K:treble] z4[K:bass] |[M:3/4] x6 |[M:1/4] x2 | %6
[M:4/4] z2 C,2 z2 C,2- | C,2 z2 z2 C,2[K:treble] | z2[K:bass] G,,2 G,4 |[M:5/8] x5 | %10
[M:9/16][K:treble] x3[K:bass] x3/2 |[M:4/4] x8 | x8 | x8 | F,6[K:treble][K:bass] z2 | x8 | %16
[M:9/8] x9 |[M:4/4] z4 z C,3 |[M:3/4] x6 |] %19
V:4
 x8 | x8 | x8 | x8 |[M:3/4] z2 z2 F,2 |[M:1/4] x2 |[M:4/4] x8 | x8 | x8 |[M:5/8] x5 | %10
[M:9/16] x9/2 |[M:4/4] x8 | x8 | x8 | C2 z2 z2 [CFA]2 | x8 |[M:9/8] x9 |[M:4/4] z4 [FA]2 z2 | %18
[M:3/4] x6 |] %19
V:5
 x8 | x8 | x8 | x8 |[M:3/4] x6 |[M:1/4] x2 |[M:4/4] x8 | x8 | x8 |[M:5/8] x5 |[M:9/16] x9/2 | %11
[M:4/4] x8 | x8 | x8 | x8 | x8 |[M:9/8] x9 |[M:4/4] z4 z B,3 |[M:3/4] x6 |] %19

